Adwaita++/actions/16/edit-table-insert-row-below.svg

<svg height="16" viewBox="0 0 16 16" width="16" xmlns="http://www.w3.org/2000/svg">
  <path d="m1 1v8h2v-2h2v2h2v-2h2v2h2v-2h2v2h2v-8zm2 2h2v2h-2zm4 0h2v2h-2zm4 0h2v2h-2zm-9 7v1h1.28125l-.28125.28125-1 1v1.4375l1-1 1.71875-1.71875h2.5625l-.28125.28125-1 1-1.71875 1.71875h-2.28125v1h7v-1.71875l-.71875.71875h-2.5625l.28125-.28125 1-1 1.71875-1.71875h.28125v-1zm8 1 2 4 2-4z" fill="#474747"/>
</svg>

<svg xmlns="http://www.w3.org/2000/svg" width="16" height="16" viewBox="0 0 16 16">
 <defs>
  <style id="current-color-scheme" type="text/css">
   .ColorScheme-Text { color:#474747; } .ColorScheme-Highlight { color:#4285f4; }
  </style>
 </defs>
 <path style="fill:currentColor" class="ColorScheme-Text" d="M 1 1 L 1 9 L 3 9 L 3 7 L 5 7 L 5 9 L 7 9 L 7 7 L 9 7 L 9 9 L 11 9 L 11 7 L 13 7 L 13 9 L 15 9 L 15 1 L 1 1 z M 3 3 L 5 3 L 5 5 L 3 5 L 3 3 z M 7 3 L 9 3 L 9 5 L 7 5 L 7 3 z M 11 3 L 13 3 L 13 5 L 11 5 L 11 3 z M 2 10 L 2 11 L 3.28125 11 L 3 11.28125 L 2 12.28125 L 2 13.71875 L 3 12.71875 L 4.71875 11 L 7.28125 11 L 7 11.28125 L 6 12.28125 L 4.28125 14 L 2 14 L 2 15 L 9 15 L 9 13.28125 L 8.28125 14 L 5.71875 14 L 6 13.71875 L 7 12.71875 L 8.71875 11 L 9 11 L 9 10 L 2 10 z M 10 11 L 12 15 L 14 11 L 10 11 z"/>
</svg>
